X: 3
T: The Brosna
R: slide
M: 12/8
L: 1/8
K: Gmaj
|: GFE |D2 G G2 A B^AB d2 B | A2 D FED A2 G FED |
D2 G- G2 A B^AB d2 B | A2 D FED G3 :|
|: GB/c/d |g2 f e2 g f2 e d2 B | c2 B A2 B c2 d e2 f |
g3 efg f2 e d2 B | c2 A F2 D G3 :|


Tune 1414	Setting 1414

